X: 7786
T:Schottische fr W\"asterbotten
R:Schottische
O:Sweden
M:4/4
A:W\"asterbotten
K:Am
AEAB c2cB | A2ce a2g2 | \
f2e2d2c2 | BeB^G E2DE | \
F2FE DEFG |
|1 E2E2 A^GA^A | BcB^A B^dfd | e^def e=dcB :|2\
E2A2c2AB | c2cA B2B^G | A2A2A2:|
|: ec |\
A2A2 a3a | gagfe2d2 | e2e2c'3c' | bc'ba^g2 de | \
f2fed2Bc | dedcB2 Bc |
|1 dedc BGBd | c2c2c2 :|2\
dedc BcBA | ^G2A2A2:|
